svg/fluentui-system-icons/ic_fluent_note_add_16_regular.svg

<svg width="16" height="16" viewBox="0 0 16 16" fill="none" xmlns="http://www.w3.org/2000/svg">
<path d="M10 5.5C10 7.98528 7.98528 10 5.5 10C3.01472 10 1 7.98528 1 5.5C1 3.01472 3.01472 1 5.5 1C7.98528 1 10 3.01472 10 5.5ZM6 3.5C6 3.22386 5.77614 3 5.5 3C5.22386 3 5 3.22386 5 3.5V5H3.5C3.22386 5 3 5.22386 3 5.5C3 5.77614 3.22386 6 3.5 6H5L5 7.5C5 7.77614 5.22386 8 5.5 8C5.77614 8 6 7.77614 6 7.5V6H7.5C7.77614 6 8 5.77614 8 5.5C8 5.22386 7.77614 5 7.5 5H6V3.5ZM12.5 4H10.793C10.6944 3.65136 10.5622 3.31679 10.4003 3H12.5C13.8807 3 15 4.11929 15 5.5V9.78579C15 10.1836 14.842 10.5651 14.5607 10.8464L10.8464 14.5607C10.5651 14.842 10.1836 15 9.78579 15L5.5 15C4.11929 15 3 13.8807 3 12.5V10.4003C3.31679 10.5622 3.65136 10.6944 4 10.793V12.5C4 13.3284 4.67157 14 5.5 14L9 14V12C9 10.3431 10.3431 9 12 9H14V5.5C14 4.67157 13.3284 4 12.5 4ZM10 13.9518C10.0512 13.9275 10.0985 13.8944 10.1393 13.8536L13.8536 10.1393C13.8944 10.0985 13.9275 10.0512 13.9518 10H12C10.8954 10 10 10.8954 10 12V13.9518Z" fill="#212121"/>
</svg>

<svg xmlns="http://www.w3.org/2000/svg" width="16" height="16"><path d="M10 5.5a4.5 4.5 0 1 1-9 0 4.5 4.5 0 0 1 9 0Zm-4-2a.5.5 0 0 0-1 0V5H3.5a.5.5 0 0 0 0 1H5v1.5a.5.5 0 0 0 1 0V6h1.5a.5.5 0 0 0 0-1H6V3.5Zm6.5.5h-1.707a5.466 5.466 0 0 0-.393-1h2.1A2.5 2.5 0 0 1 15 5.5v4.286a1.5 1.5 0 0 1-.44 1.06l-3.714 3.715a1.5 1.5 0 0 1-1.06.439H5.5A2.5 2.5 0 0 1 3 12.5v-2.1c.317.162.651.294 1 .393V12.5A1.5 1.5 0 0 0 5.5 14H9v-2a3 3 0 0 1 3-3h2V5.5A1.5 1.5 0 0 0 12.5 4ZM10 13.952a.5.5 0 0 0 .14-.098l3.714-3.715a.5.5 0 0 0 .098-.139H12a2 2 0 0 0-2 2v1.952Z"/></svg>
